X:1
T:James Gibb editions
T:Ingiustissimo amor - Festa
T:#
%%score [ 1 2 3 ]
L:1/8
Q:1/4=120
M:2/2
K:C
V:1 treble nm="Soprano" snm="S"
V:2 treble nm="Alto" snm="A"
V:3 treble-8 nm="Tenor" snm="T"
V:1
"^Ludovico Ariosto\n(1474-1533)""^Costanzo Festa\n(1490-1545)""^Ingiustissimo amor" A8 | %1
w: In-|
 c2 c2 c2 A2 | B6 d2 | c2 A2 c2 d2 |[M:2/2] G2 B2 c2 c2 | B4 A2 z c | B2 A4 G2 | A4 z2 F2 | %8
w: giu- stis- si- mo~~A-|mor, in-|giu- stis- si- mo~~A-|mor, per- chè si|ra- ro, per-|chè si ra-|ro Cor-|
 G2 E2 F2 G2 | A2 B2 c2 c2 | (AGAB c4- | c2 BA B2 A2- | A2 G2 A4- | A2 GF E2) F2 | z2 F2 F2 D2 | %15
w: ri- spon- den- ti|fai no- stri de-|si\- * * * *|||* * * * ri?|On- de, per-|
 F2 G2 (FGAB | c2 G2 A2 B2 | c4 B4- | B2 G2 A2 B2 | c4 B2 d2 | c2 B2 A2 A2 | G3 F E2 F2- | %22
w: fi- da,~~ad- vien * * *|* che te~~e si|ca- ro,|* che te~~e si|ca- ro Il|di- scor- de vo-|ler che~~in dui cor|
 FE D4 C2) | (DEFG A2 _B2- | BA A4 G2) | z2 A2 c2 c2 | d2 d2 c2 A2 | (BcdB c2) d2 | B4 A2 F2 | %29
w: |mi- * * * * *|* * * ri?|Ir non mi|las- si~~al fa- cil|gua\- * * * * do,~~e|chia- ro, al|
 _B4 A2 (c2- | c2 BA G2) E2 | F4 E4- | E4 A4- | A4 A2 c2 | B2 A2 B2 c2 | A2 G2 c4 | B4 z2 A2 | %37
w: fa- cil gua\-|* * * * do~~e|chia- ro,|* Et|* nel più|cie- ce~~a mag- gior|fon- do ti-|ri: Da|
 B2 c2 d2 B2 | c2 (e3 dcB | A2) d4 c2 | (B2 A2 c2 B2- | BA A4 ^G2) | A4 z2 A2 | B2 c2 d2 B2 | %44
w: chi de- sia~~al mio~a-|mor tu * * *|* mi ri-|chia\- * * *||mi, Et|chi me~~ha in~~o- dio|
 c2 e3 (dcB | A2) d4 c2 | (B2 A2 c2 B2- | BA A4 ^G2) | A8 | z2[Q:1/4=118] E2[Q:1/4=114] A4- | %50
w: vuoi che a\- * *|* do- ri~et|a\- * * *||mi,|che~~a do\-|
[Q:1/4=110] A2[Q:1/4=108] G2[Q:1/4=104] F4 |[Q:1/4=102] E8 |] %52
w: * ri~~et a-|mi.|
V:2
 F8 | G2 A2 G2 F2 | G6 D2 | F2 E2 F2 F2 |[M:2/2] E2 D2 E4 | D2 (D4 C2) | D3 C B,2 C2 | %7
w: In-|giu- stis- si- mo~~A-|mor, in-|giu- stis- si- mo~~A-|mor, per- chè|si ra\- *|ro, per- chè si|
 (A,B,CD EC D2) | G,2 C2 C2 B,2 | C2 D2 E4 | F4 E2 (A2- | AGFE D2 C2) | (D3 E F2) E2 | %13
w: ra\- * * * * * *|ro Cor- ri- spon-|den- ti fai|no- stri de\-||si\- * * ri?|
 z2 C2 C2 A,2 | C2 D2 C2 B,2 | C2 E2 (D2 C2- | CD E3 F G2- | G2 ^F2) G4- | G4 z2 D2 | E2 F2 (G3 F | %20
w: On- de, per-|fi- da,~~ad- vien che|te~~e si ca\- *||* * ro,|* che|te~~e si ca\- *|
 E2 D3 C C2- | C2 B,2) C2 A,2 | A2 G2 E2 E2 | F4 (D3 C) | (D2 F4 ED) | E2 F2 (E4 | D3 C/B,/ A,4) | %27
w: |* * ro Il|di- scor- de vo-|ler che~~in *|~dui * * *|cor mi- ri?||
 z2 D2 F2 F2 | G2 G2 F2 D2 | F2 G2 (E2 F2- | FE D4 ^C2) | (D6 CB, | ^C4) E4- | E4 F2 E2 | %34
w: Ir non mi|las- si~~al fa- cil|gua- do,~~e chia\-~ *||ro, * *|* Et|* nel più|
 F2 F2 G3 F | E2 D2 (E2 F2) | D2 G4 F2 | (E3 F) D2 (E2- | EDCB,) A,2 E2 | F2 D2 E2 F2 | %40
w: cie- ce~~a mag- gior|fon- do ti\- *|ri,~~a mag- gior|fon\- * do ti\-|* * * * ri: Da|chi de- sia~~al mio~~a-|
 G3 F E2 D2 | (C3 B,/A,/ B,4) | (A,B,CD E2) F2 | E3 F D2 (E2- | EDCB, A,2) E2 | F2 D2 E2 F2 | %46
w: mor tu mi ri-|chia\- * * *|mi, * * * * tu|mi ri- chia- mi,|* * * * * Et|chi me~~ha in~~o- dio|
 G3 F E2 D2 | (C3 B,/A,/ B,4) | A,2 C4 D2- | D2 C2 (F4- | F2 E2 D4) | ^C8 |] %52
w: vuoi che~~a- do- ri~~et|a\- * * *|mi, che~~a- do\-|* ri~~et a\-||mi.|
V:3
 d8 | c2 A2 c2 d2 | G6 G2 | A2 A2 F2 D2 |[M:2/2][K:treble-8] E2 G2 (CDEF | G2) G2 A4 | G2 D2 E4 | %7
w: In-|giu- stis- si- mo~~A-|mor, in-|giu- stis- si- mo~~A-|mor, per- chè * * *|* si ra-|ro, si ra-|
 F4 z2 D2 | E2 A2 A2 G2 | F2 D2 C2 C2 | (F3 G) A4 | F4 G2 A2 | _B4 A4- | A4 z2 F2 | F2 D2 F2 G2 | %15
w: ro Cor-|ri- spon- den- ti|fai no- stri de-|si\- * ri,|no- stri de-|si- ri?|* On-|de, per- fi- da,~~ad-|
 F2 E2 (F3 G | AB c3 B) G2 | A4 G4 | z2 c2 c2 B2 | A4 G2 G2 | A2 B2 (c3 d | e2 d2 c2 F2 | %22
w: vien che te~~e *|* * * * si|ca- ro,|che te~~e si|ca- ro Il|di- scor- de *|* vo- ler che~~in|
 F2 G2 A4 | D2 d2 (dc_BA | G2) A2 _B4 | A2 d2 c2 A2 | B2 B2 c2 F2 | G4 F2 D2 | GABc d2) d2 | %29
w: dui cor mi-|ri, che~~in dui * * *|* cor mi-|ri? Ir non mi|las- si~~al fa- cil|gua- do, al|fa\- * * * * cil|
 _B4 c2 (F2- | F2 G2 E4 | D4) A4- | A4 A4- | A4 d2 c2 | d2 d2 G2 c2 | c2 B2 A4 | (GABc d2) d2 | %37
w: gua- do~~e chia\-||* ro,|* Et|* nel più|cie- ce~~a mag- gior|fon- do ti-|ri: * * * * Da|
 G2 A2 B2 G2 | A2 (c3 BAG) | F2 _B2 A4 | G2 c2 c2 G2 | A4 E4 | z2 A2 A2 D2 | G2 A2 B2 G2 | %44
w: chi de- sia~~al mio~~a-|mor tu * * *|mi ri- chia-|mi, tu mi ri-|chia- mi,|Et chi me~~ha|in~~o- dio vuoi che~~a-|
 (A2 c3 BAG | F2) _B2 A4 | G2 c2 c2 G2 | A4 E4 | (F3 G A2) D2 | A4 D3 E | F2 C2 D4 | A8 |] %52
w: do\- * * * *|* ri~~et a-|mi, et chi me~~ha|in~~o- dio|vuoi * * che~~a-|do- ri, che~~a|do- ri~~et a-|mi.|

